; generated by Slic3r 1.0.0RC2 on 2023-04-04 at 09:41:29

; layer_height = 0.4
; perimeters = 3
; top_solid_layers = 3
; bottom_solid_layers = 3
; fill_density = 0.4
; perimeter_speed = 30
; infill_speed = 60
; travel_speed = 130
; nozzle_diameter = 0.5
; filament_diameter = 3
; extrusion_multiplier = 1
; perimeters extrusion width = 0.50mm
; infill extrusion width = 0.53mm
; solid infill extrusion width = 0.53mm
; top infill extrusion width = 0.53mm
; first layer extrusion width = 0.70mm

G21 ; set units to millimeters
M107
M104 S200 ; set temperature
G28 ; home all axes
G1 Z5 F5000 ; lift nozzle

M109 S200 ; wait for temperature to be reached
G90 ; use absolute coordinates
G92 E0
M82 ; use absolute distances for extrusion
G1 F1800.000 E-1.00000
G92 E0
G1 Z0.350 F7800.000
G1 X83.438 Y80.798 F7800.000
G1 E1.00000 F1800.000
G1 X83.708 Y80.538 E1.01220 F540.000
G1 X84.708 Y79.748 E1.05366
G1 X85.838 Y79.168 E1.09498
G1 X87.058 Y78.798 E1.13646
G1 X88.328 Y78.678 E1.17797
G1 X104.328 Y78.678 E1.69853
G1 X105.598 Y78.808 E1.74006
G1 X106.828 Y79.168 E1.78176
G1 X117.028 Y83.297 E2.13979
G1 X118.208 Y83.918 E2.18316
G1 X119.238 Y84.758 E2.22640
G1 X135.238 Y100.748 E2.96236
G1 X136.058 Y101.758 E3.00469
G1 X136.678 Y102.908 E3.04719
G1 X137.058 Y104.158 E3.08970
G1 X137.188 Y105.458 E3.13221
G1 X137.188 Y110.538 E3.29749
G1 X137.058 Y111.848 E3.34032
G1 X136.668 Y113.098 E3.38292
G1 X136.048 Y114.258 E3.42571
G1 X135.208 Y115.268 E3.46845
G1 X134.188 Y116.098 E3.51124
G1 X133.028 Y116.708 E3.55388
G1 X122.828 Y120.838 E3.91191
G1 X121.598 Y121.198 E3.95361
G1 X120.328 Y121.328 E3.99514
G1 X72.338 Y121.328 E5.55651
G1 X71.038 Y121.198 E5.59901
G1 X69.788 Y120.818 E5.64152
G1 X68.638 Y120.208 E5.68387
G1 X67.628 Y119.378 E5.72641
G1 X64.768 Y116.518 E5.85800
G1 X63.938 Y115.508 E5.90053
G1 X63.328 Y114.358 E5.94289
G1 X62.948 Y113.108 E5.98539
G1 X62.818 Y111.808 E6.02790
G1 X62.818 Y104.188 E6.27582
G1 X62.948 Y102.888 E6.31833
G1 X63.328 Y101.648 E6.36052
G1 X63.938 Y100.498 E6.40287
G1 X64.758 Y99.487 E6.44520
G1 X83.368 Y80.867 E7.30172
G1 F1800.000 E6.30172
G92 E0
G1 X88.000 Y103.175 F7800.000
G1 E1.00000 F1800.000
G1 X88.330 Y103.123 E1.01086 F540.000
G1 X88.659 Y103.175 E1.02172
G1 X88.889 Y103.292 E1.03011
G1 X88.957 Y103.327 E1.03258
G1 X89.193 Y103.563 E1.04344
G1 X89.344 Y103.860 E1.05430
G1 X89.397 Y104.190 E1.06516
G1 X89.344 Y104.520 E1.07602
G1 X89.193 Y104.817 E1.08688
G1 X88.957 Y105.053 E1.09774
G1 X88.659 Y105.205 E1.10859
G1 X88.330 Y105.257 E1.11945
G1 X88.000 Y105.205 E1.13031
G1 X87.703 Y105.053 E1.14117
G1 X87.467 Y104.817 E1.15203
G1 X87.315 Y104.520 E1.16289
G1 X87.263 Y104.190 E1.17375
G1 X87.315 Y103.860 E1.18461
G1 X87.546 Y103.407 E1.20118
G1 X87.912 Y103.220 E1.21454
G1 X88.086 Y102.853 F7800.000
G1 X94.257 Y107.258 F7800.000
G1 X94.476 Y106.942 E1.22706 F540.000
G1 X94.722 Y106.724 E1.23775
G1 X95.104 Y106.508 E1.25205
G1 X95.478 Y106.416 E1.26457
G1 X95.863 Y106.416 E1.27708
G1 X96.236 Y106.508 E1.28960
G1 X96.527 Y106.660 E1.30029
G1 X96.752 Y106.779 E1.30856
G1 X97.083 Y107.258 E1.32753
G1 X97.220 Y107.618 E1.34004
G1 X97.266 Y108.000 E1.35256
G1 X97.220 Y108.382 E1.36508
G1 X97.083 Y108.742 E1.37759
G1 X96.865 Y109.058 E1.39011
G1 X96.577 Y109.313 E1.40263
G1 X96.236 Y109.492 E1.41515
G1 X95.863 Y109.584 E1.42766
G1 X95.478 Y109.584 E1.44018
G1 X95.104 Y109.492 E1.45270
G1 X94.764 Y109.313 E1.46522
G1 X94.476 Y109.058 E1.47773
G1 X94.257 Y108.742 E1.49025
G1 X94.121 Y108.382 E1.50277
G1 X94.074 Y108.000 E1.51529
G1 X94.121 Y107.618 E1.52780
G1 X94.222 Y107.351 E1.53711
G1 X94.065 Y106.925 F7800.000
G1 X89.193 Y111.183 F7800.000
G1 X89.344 Y111.480 E1.54797 F540.000
G1 X89.397 Y111.810 E1.55883
G1 X89.344 Y112.140 E1.56969
G1 X89.193 Y112.437 E1.58055
G1 X88.957 Y112.673 E1.59141
G1 X88.659 Y112.825 E1.60227
G1 X88.330 Y112.877 E1.61313
G1 X88.000 Y112.825 E1.62399
G1 X87.546 Y112.593 E1.64056
G1 X87.315 Y112.140 E1.65713
G1 X87.263 Y111.810 E1.66799
G1 X87.315 Y111.480 E1.67885
G1 X87.432 Y111.251 E1.68724
G1 X87.467 Y111.183 E1.68971
G1 X87.703 Y110.947 E1.70057
G1 X88.000 Y110.795 E1.71143
G1 X88.330 Y110.743 E1.72228
G1 X88.659 Y110.795 E1.73314
G1 X88.957 Y110.947 E1.74400
G1 X89.123 Y111.113 E1.75166
G1 X89.526 Y111.165 F7800.000
G1 X90.481 Y110.816 F7800.000
G1 X90.269 Y110.401 E1.76682 F540.000
G1 X89.739 Y109.870 E1.79122
G1 X89.071 Y109.530 E1.81562
G1 X88.330 Y109.413 E1.84003
G1 X87.589 Y109.530 E1.86443
G1 X87.136 Y109.761 E1.88096
G1 X87.136 Y106.239 E1.99551
G1 X87.589 Y106.470 E2.01204
G1 X88.330 Y106.587 E2.03644
G1 X89.071 Y106.470 E2.06084
G1 X89.739 Y106.129 E2.08525
G1 X90.269 Y105.599 E2.10965
G1 X90.610 Y104.931 E2.13406
G1 X90.741 Y104.104 E2.16130
G1 X94.143 Y105.481 E2.28072
G1 X93.485 Y106.064 E2.30934
G1 X93.085 Y106.643 E2.33224
G1 X92.835 Y107.301 E2.35514
G1 X92.751 Y108.000 E2.37803
G1 X92.835 Y108.699 E2.40094
G1 X93.085 Y109.357 E2.42384
G1 X93.485 Y109.936 E2.44674
G1 X94.143 Y110.519 E2.47535
G1 X90.741 Y111.896 E2.59477
G1 X90.610 Y111.069 E2.62202
G1 X90.526 Y110.904 E2.62806
G1 X89.977 Y111.275 F7800.000
G1 X89.731 Y110.792 E2.64569 F540.000
G1 X89.348 Y110.409 E2.66332
G1 X88.865 Y110.163 E2.68095
G1 X88.330 Y110.078 E2.69858
G1 X87.794 Y110.163 E2.71621
G1 X87.312 Y110.409 E2.73384
G1 X86.479 Y111.241 E2.77214
G1 X86.479 Y104.759 E2.98304
G1 X87.312 Y105.591 E3.02133
G1 X87.794 Y105.837 E3.03896
G1 X88.330 Y105.922 E3.05660
G1 X88.865 Y105.837 E3.07423
G1 X89.348 Y105.591 E3.09186
G1 X89.731 Y105.208 E3.10949
G1 X89.977 Y104.725 E3.12712
G1 X90.062 Y104.190 E3.14475
G1 X89.881 Y103.047 E3.18241
G1 X95.857 Y105.466 E3.39219
G1 X95.844 Y105.649 E3.39816
G1 X94.870 Y105.889 E3.43082
G1 X94.388 Y106.142 E3.44853
G1 X93.980 Y106.503 E3.46624
G1 X93.671 Y106.951 E3.48395
G1 X93.623 Y107.078 E3.48837
G1 X93.478 Y107.460 E3.50166
G1 X93.412 Y108.000 E3.51936
G1 X93.478 Y108.540 E3.53707
G1 X93.671 Y109.049 E3.55478
G1 X93.980 Y109.497 E3.57249
G1 X94.388 Y109.858 E3.59020
G1 X94.870 Y110.111 E3.60791
G1 X95.844 Y110.351 E3.64057
G1 X95.857 Y110.534 E3.64654
G1 X89.881 Y112.953 E3.85631
G1 X90.062 Y111.810 E3.89398
G1 X89.992 Y111.372 E3.90840
G1 X88.413 Y114.256 F7800.000
G1 X85.822 Y111.665 E4.02762 F540.000
G1 X85.822 Y104.335 E4.26610
G1 X88.413 Y101.744 E4.38532
G1 X98.178 Y105.696 E4.72805
G1 X98.178 Y110.304 E4.87798
G1 X88.505 Y114.219 E5.21749
G1 X88.329 Y113.604 F7800.000
G1 F1800.000 E4.21749
G92 E0
G1 X87.644 Y109.075 F7800.000
G1 E1.00000 F1800.000
G1 X87.577 Y109.008 E1.00330 F1080.000
G1 X88.577 Y109.005 E1.03841
G1 X87.577 Y108.006 E1.08807
G1 X87.577 Y107.003 E1.12329
G1 X91.634 Y111.059 E1.32474
G1 X92.348 Y110.770 E1.35179
G1 X88.573 Y106.995 E1.53925
G1 X89.385 Y106.805 E1.56855
G1 X93.062 Y110.481 E1.75114
G1 X92.414 Y108.830 F7800.000
G1 X90.038 Y106.454 E1.86913 F1080.000
G1 X90.539 Y105.953 E1.89404
G1 X92.337 Y107.750 E1.98331
G1 X92.509 Y106.919 E2.01311
G1 X90.907 Y105.318 E2.09263
G1 X91.464 Y104.872 E2.11769
G1 X92.829 Y106.237 E2.18547
G1 X93.239 Y105.644 E2.21079
G1 X93.149 Y105.554 E2.21525
G1 X96.477 Y105.853 F7800.000
G1 X96.586 Y105.962 E2.22025 F360.000
G1 X97.691 Y107.743 F7800.000
G1 X97.709 Y107.762 E2.22068 F360.000
G1 X97.679 Y108.351 F7800.000
G1 X97.704 Y108.376 E2.22125 F360.000
G1 X97.475 Y109.310 F7800.000
G1 X97.533 Y109.367 E2.22395 F360.000
G1 X97.216 Y109.997 E2.24732 F360.000
G1 X97.010 Y109.791 E2.25697 F360.000
G1 X96.481 Y110.208 E2.27931 F360.000
G1 X96.543 Y110.270 E2.28221 F360.000
G1 X89.437 Y112.891 F7800.000
G1 X89.405 Y112.859 E2.28312 F360.000
G1 X89.082 Y113.112 E2.29137 F360.000
G1 X89.343 Y113.372 E2.29879 F360.000
G1 X88.950 Y113.555 E2.30751 F360.000
G1 X88.672 Y113.276 E2.31545 F360.000
G1 X88.141 Y113.321 E2.32617 F360.000
G1 X88.541 Y113.721 E2.33756 F360.000
G1 F1800.000 E1.33756
G92 E0
G1 X88.871 Y102.782 F7800.000
G1 E1.00000 F1800.000
G1 X89.299 Y102.584 E1.01035 F360.000
G1 X89.366 Y102.651 E1.01242 F360.000
G1 X88.871 Y102.782 F7800.000
G1 X88.454 Y102.365 E1.02535 F360.000
G1 X88.141 Y102.679 E1.03506 F360.000
G1 X88.160 Y102.698 E1.03566 F360.000
G1 F1800.000 E0.03566
G92 E0
G1 X73.397 Y104.190 F7800.000
G1 E1.00000 F1800.000
G1 X73.344 Y104.520 E1.01086 F540.000
G1 X73.193 Y104.817 E1.02172
G1 X72.957 Y105.053 E1.03258
G1 X72.659 Y105.205 E1.04344
G1 X72.330 Y105.257 E1.05430
G1 X72.000 Y105.205 E1.06516
G1 X71.703 Y105.053 E1.07602
G1 X71.467 Y104.817 E1.08688
G1 X71.315 Y104.520 E1.09774
G1 X71.263 Y104.190 E1.10860
G1 X71.315 Y103.860 E1.11946
G1 X71.546 Y103.407 E1.13602
G1 X72.000 Y103.175 E1.15259
G1 X72.330 Y103.123 E1.16345
G1 X72.659 Y103.175 E1.17431
G1 X72.957 Y103.327 E1.18517
G1 X73.193 Y103.563 E1.19603
G1 X73.344 Y103.860 E1.20689
G1 X73.381 Y104.093 E1.21454
G1 X73.099 Y104.342 F7800.000
G1 X78.257 Y107.258 F7800.000
G1 X78.476 Y106.942 E1.22706 F540.000
G1 X78.722 Y106.724 E1.23775
G1 X79.104 Y106.508 E1.25205
G1 X79.478 Y106.416 E1.26457
G1 X79.863 Y106.416 E1.27708
G1 X80.236 Y106.508 E1.28960
G1 X80.527 Y106.660 E1.30029
G1 X80.752 Y106.779 E1.30856
G1 X81.083 Y107.258 E1.32753
G1 X81.220 Y107.618 E1.34004
G1 X81.266 Y108.000 E1.35256
G1 X81.220 Y108.382 E1.36508
G1 X81.083 Y108.742 E1.37759
G1 X80.865 Y109.058 E1.39011
G1 X80.577 Y109.313 E1.40263
G1 X80.236 Y109.492 E1.41515
G1 X79.863 Y109.584 E1.42766
G1 X79.478 Y109.584 E1.44018
G1 X79.104 Y109.492 E1.45270
G1 X78.764 Y109.313 E1.46522
G1 X78.476 Y109.058 E1.47773
G1 X78.257 Y108.742 E1.49025
G1 X78.121 Y108.382 E1.50277
G1 X78.074 Y108.000 E1.51529
G1 X78.121 Y107.618 E1.52780
G1 X78.222 Y107.351 E1.53711
G1 X78.642 Y107.258 F7800.000
G1 X73.193 Y111.183 F7800.000
G1 X73.344 Y111.480 E1.54797 F540.000
G1 X73.397 Y111.810 E1.55883
G1 X73.344 Y112.140 E1.56969
G1 X73.193 Y112.437 E1.58055
G1 X72.957 Y112.673 E1.59141
G1 X72.659 Y112.825 E1.60227
G1 X72.330 Y112.877 E1.61313
G1 X72.000 Y112.825 E1.62399
G1 X71.546 Y112.593 E1.64056
G1 X71.315 Y112.140 E1.65713
G1 X71.263 Y111.810 E1.66799
G1 X71.315 Y111.480 E1.67885
G1 X71.432 Y111.251 E1.68724
G1 X71.467 Y111.183 E1.68971
G1 X71.703 Y110.947 E1.70057
G1 X72.000 Y110.795 E1.71143
G1 X72.330 Y110.743 E1.72228
G1 X72.659 Y110.795 E1.73314
G1 X72.957 Y110.947 E1.74400
G1 X73.123 Y111.113 E1.75166
G1 X73.041 Y111.480 F7800.000
G1 X74.481 Y110.816 F7800.000
G1 X74.269 Y110.401 E1.76682 F540.000
G1 X73.739 Y109.870 E1.79122
G1 X73.071 Y109.530 E1.81562
G1 X72.330 Y109.413 E1.84003
G1 X71.589 Y109.530 E1.86443
G1 X71.136 Y109.761 E1.88096
G1 X71.136 Y106.239 E1.99551
G1 X71.589 Y106.470 E2.01204
G1 X72.330 Y106.587 E2.03644
G1 X73.071 Y106.470 E2.06084
G1 X73.739 Y106.129 E2.08525
G1 X74.269 Y105.599 E2.10965
G1 X74.610 Y104.931 E2.13406
G1 X74.741 Y104.104 E2.16130
G1 X78.143 Y105.481 E2.28072
G1 X77.485 Y106.064 E2.30934
G1 X77.085 Y106.643 E2.33224
G1 X76.835 Y107.301 E2.35514
G1 X76.751 Y108.000 E2.37803
G1 X76.835 Y108.699 E2.40094
G1 X77.085 Y109.357 E2.42384
G1 X77.485 Y109.936 E2.44674
G1 X78.143 Y110.519 E2.47535
G1 X74.741 Y111.896 E2.59477
G1 X74.610 Y111.069 E2.62202
G1 X74.526 Y110.904 E2.62806
G1 X73.977 Y111.275 F7800.000
G1 X73.731 Y110.792 E2.64569 F540.000
G1 X73.348 Y110.409 E2.66332
G1 X72.865 Y110.163 E2.68095
G1 X72.330 Y110.078 E2.69858
G1 X71.794 Y110.163 E2.71621
G1 X71.312 Y110.409 E2.73384
G1 X70.479 Y111.241 E2.77214
G1 X70.479 Y104.759 E2.98304
G1 X71.312 Y105.591 E3.02133
G1 X71.794 Y105.837 E3.03896
G1 X72.330 Y105.922 E3.05660
G1 X72.865 Y105.837 E3.07423
G1 X73.348 Y105.591 E3.09186
G1 X73.731 Y105.208 E3.10949
G1 X73.977 Y104.725 E3.12712
G1 X74.062 Y104.190 E3.14475
G1 X73.881 Y103.047 E3.18241
G1 X79.857 Y105.466 E3.39219
G1 X79.844 Y105.649 E3.39816
G1 X78.870 Y105.889 E3.43082
G1 X78.388 Y106.142 E3.44853
G1 X77.980 Y106.503 E3.46624
G1 X77.671 Y106.951 E3.48395
G1 X77.623 Y107.078 E3.48837
G1 X77.478 Y107.460 E3.50166
G1 X77.412 Y108.000 E3.51936
G1 X77.478 Y108.540 E3.53707
G1 X77.671 Y109.049 E3.55478
G1 X77.980 Y109.497 E3.57249
G1 X78.388 Y109.858 E3.59020
G1 X78.870 Y110.111 E3.60791
G1 X79.844 Y110.351 E3.64057
G1 X79.857 Y110.534 E3.64654
G1 X73.881 Y112.953 E3.85631
G1 X74.062 Y111.810 E3.89398
G1 X73.992 Y111.372 E3.90840
G1 X72.413 Y114.256 F7800.000
G1 X69.822 Y111.665 E4.02762 F540.000
G1 X69.822 Y104.335 E4.26610
G1 X72.413 Y101.744 E4.38532
G1 X82.178 Y105.696 E4.72805
G1 X82.178 Y110.304 E4.87798
G1 X72.505 Y114.219 E5.21749
G1 X72.329 Y113.604 F7800.000
G1 F1800.000 E4.21749
G92 E0
G1 X71.644 Y109.075 F7800.000
G1 E1.00000 F1800.000
G1 X71.577 Y109.008 E1.00330 F1080.000
G1 X72.577 Y109.005 E1.03841
G1 X71.577 Y108.006 E1.08807
G1 X71.577 Y107.003 E1.12329
G1 X75.634 Y111.059 E1.32474
G1 X76.348 Y110.770 E1.35179
G1 X72.573 Y106.995 E1.53925
G1 X73.385 Y106.805 E1.56855
G1 X77.062 Y110.481 E1.75114
G1 X76.414 Y108.830 F7800.000
G1 X74.038 Y106.454 E1.86913 F1080.000
G1 X74.539 Y105.953 E1.89404
G1 X76.337 Y107.750 E1.98331
G1 X76.509 Y106.919 E2.01311
G1 X74.907 Y105.318 E2.09263
G1 X75.464 Y104.872 E2.11769
G1 X76.829 Y106.237 E2.18547
G1 X77.239 Y105.644 E2.21079
G1 X77.149 Y105.554 E2.21525
G1 X80.477 Y105.853 F7800.000
G1 X80.586 Y105.962 E2.22025 F360.000
G1 X81.691 Y107.743 F7800.000
G1 X81.709 Y107.762 E2.22068 F360.000
G1 X81.679 Y108.351 F7800.000
G1 X81.704 Y108.376 E2.22125 F360.000
G1 X81.475 Y109.310 F7800.000
G1 X81.533 Y109.367 E2.22395 F360.000
G1 X81.216 Y109.997 E2.24732 F360.000
G1 X81.010 Y109.791 E2.25697 F360.000
G1 X80.481 Y110.208 E2.27931 F360.000
G1 X80.543 Y110.270 E2.28221 F360.000
G1 X73.437 Y112.891 F7800.000
G1 X73.405 Y112.859 E2.28312 F360.000
G1 X73.082 Y113.112 E2.29137 F360.000
G1 X73.343 Y113.372 E2.29879 F360.000
G1 X72.950 Y113.555 E2.30751 F360.000
G1 X72.672 Y113.276 E2.31545 F360.000
G1 X72.141 Y113.321 E2.32617 F360.000
G1 X72.541 Y113.721 E2.33756 F360.000
G1 F1800.000 E1.33756
G92 E0
G1 X72.871 Y102.782 F7800.000
G1 E1.00000 F1800.000
G1 X73.299 Y102.584 E1.01035 F360.000
G1 X73.366 Y102.651 E1.01242 F360.000
G1 X72.871 Y102.782 F7800.000
G1 X72.454 Y102.365 E1.02535 F360.000
G1 X72.141 Y102.679 E1.03506 F360.000
G1 X72.160 Y102.698 E1.03566 F360.000
G1 F1800.000 E0.03566
G92 E0
G1 X87.467 Y88.817 F7800.000
G1 E1.00000 F1800.000
G1 X87.315 Y88.520 E1.01086 F540.000
G1 X87.263 Y88.190 E1.02172
G1 X87.315 Y87.860 E1.03258
G1 X87.546 Y87.407 E1.04915
G1 X88.000 Y87.175 E1.06572
G1 X88.330 Y87.123 E1.07658
G1 X88.659 Y87.175 E1.08744
G1 X88.957 Y87.327 E1.09830
G1 X89.193 Y87.563 E1.10915
G1 X89.344 Y87.860 E1.12001
G1 X89.397 Y88.190 E1.13087
G1 X89.344 Y88.520 E1.14173
G1 X89.193 Y88.817 E1.15259
G1 X88.957 Y89.053 E1.16345
G1 X88.659 Y89.205 E1.17431
G1 X88.330 Y89.257 E1.18517
G1 X88.000 Y89.205 E1.19603
G1 X87.703 Y89.053 E1.20689
G1 X87.536 Y88.887 E1.21454
G1 X87.618 Y88.520 F7800.000
G1 F1800.000 E0.21454
G92 E0
G1 X94.257 Y91.258 F7800.000
G1 E1.00000 F1800.000
G1 X94.476 Y90.942 E1.01252 F540.000
G1 X94.722 Y90.724 E1.02320
G1 X95.104 Y90.508 E1.03751
G1 X95.478 Y90.416 E1.05002
G1 X95.863 Y90.416 E1.06254
G1 X96.236 Y90.508 E1.07506
G1 X96.527 Y90.660 E1.08574
G1 X96.752 Y90.779 E1.09402
G1 X97.083 Y91.258 E1.11298
G1 X97.220 Y91.618 E1.12550
G1 X97.266 Y92.000 E1.13802
G1 X97.220 Y92.382 E1.15053
G1 X97.083 Y92.742 E1.16305
G1 X96.865 Y93.058 E1.17557
G1 X96.577 Y93.313 E1.18809
G1 X96.236 Y93.492 E1.20060
G1 X95.863 Y93.584 E1.21312
G1 X95.478 Y93.584 E1.22564
G1 X95.104 Y93.492 E1.23816
G1 X94.764 Y93.313 E1.25067
G1 X94.476 Y93.058 E1.26319
G1 X94.257 Y92.742 E1.27571
G1 X94.121 Y92.382 E1.28822
G1 X94.074 Y92.000 E1.30074
G1 X94.121 Y91.618 E1.31326
G1 X94.222 Y91.351 E1.32257
G1 X94.642 Y91.258 F7800.000
G1 X89.193 Y95.183 F7800.000
G1 X89.344 Y95.480 E1.33343 F540.000
G1 X89.397 Y95.810 E1.34429
G1 X89.344 Y96.140 E1.35515
G1 X89.193 Y96.437 E1.36601
G1 X88.957 Y96.673 E1.37687
G1 X88.659 Y96.825 E1.38773
G1 X88.330 Y96.877 E1.39859
G1 X88.000 Y96.825 E1.40945
G1 X87.546 Y96.593 E1.42602
G1 X87.315 Y96.140 E1.44258
G1 X87.263 Y95.810 E1.45344
G1 X87.315 Y95.480 E1.46430
G1 X87.432 Y95.251 E1.47269
G1 X87.467 Y95.183 E1.47516
G1 X87.703 Y94.947 E1.48602
G1 X88.000 Y94.795 E1.49688
G1 X88.330 Y94.743 E1.50774
