; generated by Slic3r 1.0.0RC2 on 2023-04-04 at 09:55:35

; layer_height = 0.4
; perimeters = 3
; top_solid_layers = 3
; bottom_solid_layers = 3
; fill_density = 0.4
; perimeter_speed = 30
; infill_speed = 60
; travel_speed = 130
; nozzle_diameter = 0.5
; filament_diameter = 3
; extrusion_multiplier = 1
; perimeters extrusion width = 0.50mm
; infill extrusion width = 0.53mm
; solid infill extrusion width = 0.53mm
; top infill extrusion width = 0.53mm
; first layer extrusion width = 0.70mm

G21 ; set units to millimeters
M107
M104 S200 ; set temperature
G28 ; home all axes
G1 Z5 F5000 ; lift nozzle

M109 S200 ; wait for temperature to be reached
G90 ; use absolute coordinates
G92 E0
M82 ; use absolute distances for extrusion
G1 F1800.000 E-1.00000
G92 E0
G1 Z0.350 F7800.000
G1 X94.743 Y87.797 F7800.000
G1 E1.00000 F1800.000
G1 X95.013 Y87.537 E1.01220 F540.000
G1 X96.013 Y86.747 E1.05366
G1 X97.153 Y86.157 E1.09542
G1 X98.373 Y85.797 E1.13681
G1 X99.643 Y85.677 E1.17831
G1 X100.913 Y85.807 E1.21985
G1 X102.133 Y86.167 E1.26123
G1 X103.143 Y86.577 E1.29670
G1 X104.323 Y87.197 E1.34006
G1 X105.343 Y88.037 E1.38305
G1 X112.343 Y95.027 E1.70491
G1 X113.173 Y96.037 E1.74744
G1 X113.793 Y97.187 E1.78995
G1 X114.173 Y98.437 E1.83245
G1 X114.303 Y99.737 E1.87496
G1 X114.303 Y107.247 E2.11930
G1 X114.173 Y108.557 E2.16213
G1 X113.783 Y109.807 E2.20473
G1 X113.163 Y110.967 E2.24753
G1 X112.323 Y111.977 E2.29027
G1 X111.313 Y112.807 E2.33280
G1 X110.143 Y113.417 E2.37573
G1 X109.133 Y113.827 E2.41119
G1 X107.913 Y114.187 E2.45258
G1 X106.633 Y114.317 E2.49444
G1 X92.643 Y114.317 E2.94960
G1 X91.373 Y114.187 E2.99114
G1 X90.153 Y113.827 E3.03253
G1 X89.013 Y113.237 E3.07429
G1 X88.023 Y112.447 E3.11550
G1 X87.733 Y112.167 E3.12861
G1 X86.863 Y111.147 E3.17223
G1 X86.223 Y109.977 E3.21562
G1 X85.833 Y108.707 E3.25884
G1 X85.693 Y107.377 E3.30235
G1 X85.693 Y99.617 E3.55483
G1 X85.823 Y98.317 E3.59733
G1 X86.203 Y97.077 E3.63953
G1 X86.813 Y95.927 E3.68188
G1 X87.223 Y95.367 E3.70446
G1 X87.663 Y94.877 E3.72589
G1 X94.673 Y87.866 E4.04845
G1 F1800.000 E3.04845
G92 E0
G1 X99.423 Y99.671 F7800.000
G1 E1.00000 F1800.000
G1 X99.602 Y99.817 E1.00749 F378.000
G1 X99.660 Y99.449 E1.01962
G1 X99.771 Y99.429 E1.02330
G1 X99.919 Y99.895 E1.03920
G1 X100.389 Y99.702 E1.05572
G1 X100.565 Y99.910 E1.06459
G1 X100.405 Y100.130 E1.07343
G1 X100.367 Y99.712 E1.08709
G1 X100.367 Y100.127 F7800.000
G1 X100.069 Y100.125 E1.09679 F378.000
G1 X99.902 Y99.932 E1.10509
G1 X99.919 Y99.895 F7800.000
G1 X99.713 Y99.932 E1.11188 F378.000
G1 X99.702 Y99.946 F7800.000
G1 X99.579 Y100.488 E1.12997 F378.000
G1 X99.458 Y100.217 E1.13965
G1 X99.713 Y99.932 E1.15209
G1 X99.602 Y99.817 E1.15731
G1 X100.001 Y100.091 F7800.000
G1 X99.832 Y100.436 E1.16980 F378.000
G1 X99.616 Y100.488 E1.17704
G1 X100.405 Y100.130 F7800.000
G1 X100.439 Y100.164 E1.17863 F378.000
G1 F1800.000 E0.17863
G92 E0
G1 X99.423 Y92.671 F7800.000
G1 E1.00000 F1800.000
G1 X99.602 Y92.817 E1.00749 F378.000
G1 X99.660 Y92.449 E1.01962
G1 X99.771 Y92.429 E1.02330
G1 X99.919 Y92.895 E1.03920
G1 X100.389 Y92.702 E1.05572
G1 X100.565 Y92.910 E1.06459
G1 X100.405 Y93.130 E1.07343
G1 X100.367 Y92.712 E1.08709
G1 X100.367 Y93.127 F7800.000
G1 X100.069 Y93.125 E1.09679 F378.000
G1 X99.902 Y92.932 E1.10509
G1 X99.919 Y92.895 F7800.000
G1 X99.713 Y92.932 E1.11188 F378.000
G1 X99.702 Y92.946 F7800.000
G1 X99.579 Y93.488 E1.12997 F378.000
G1 X99.458 Y93.217 E1.13965
G1 X99.713 Y92.932 E1.15209
G1 X99.602 Y92.817 E1.15731
G1 X100.001 Y93.091 F7800.000
G1 X99.832 Y93.436 E1.16980 F378.000
G1 X99.616 Y93.488 E1.17704
G1 X100.405 Y93.130 F7800.000
G1 X100.439 Y93.164 E1.17863 F378.000
G1 F1800.000 E0.17863
G92 E0
G1 X92.423 Y99.671 F7800.000
G1 E1.00000 F1800.000
G1 X92.602 Y99.817 E1.00749 F378.000
G1 X92.660 Y99.449 E1.01962
G1 X92.771 Y99.429 E1.02330
G1 X92.919 Y99.895 E1.03920
G1 X93.389 Y99.702 E1.05572
G1 X93.565 Y99.910 E1.06459
G1 X93.405 Y100.130 E1.07343
G1 X93.367 Y99.712 E1.08709
G1 X93.367 Y100.127 F7800.000
G1 X93.069 Y100.125 E1.09679 F378.000
G1 X92.902 Y99.932 E1.10509
G1 X92.919 Y99.895 F7800.000
G1 X92.713 Y99.932 E1.11188 F378.000
G1 X92.702 Y99.946 F7800.000
G1 X92.579 Y100.488 E1.12997 F378.000
G1 X92.458 Y100.217 E1.13965
G1 X92.713 Y99.932 E1.15209
G1 X92.602 Y99.817 E1.15731
G1 X93.001 Y100.091 F7800.000
G1 X92.832 Y100.436 E1.16980 F378.000
G1 X92.616 Y100.488 E1.17704
G1 X93.405 Y100.130 F7800.000
G1 X93.439 Y100.164 E1.17863 F378.000
G1 F1800.000 E0.17863
G92 E0
G1 X92.423 Y106.671 F7800.000
G1 E1.00000 F1800.000
G1 X92.602 Y106.817 E1.00749 F378.000
G1 X92.660 Y106.449 E1.01962
G1 X92.771 Y106.429 E1.02330
G1 X92.919 Y106.895 E1.03920
G1 X93.389 Y106.702 E1.05572
G1 X93.565 Y106.910 E1.06459
G1 X93.405 Y107.130 E1.07343
G1 X93.367 Y106.712 E1.08709
G1 X93.367 Y107.127 F7800.000
G1 X93.069 Y107.125 E1.09679 F378.000
G1 X92.902 Y106.932 E1.10509
G1 X92.919 Y106.895 F7800.000
G1 X92.713 Y106.932 E1.11188 F378.000
G1 X92.702 Y106.946 F7800.000
G1 X92.579 Y107.488 E1.12997 F378.000
G1 X92.458 Y107.217 E1.13965
G1 X92.713 Y106.932 E1.15209
G1 X92.602 Y106.817 E1.15731
G1 X93.001 Y107.091 F7800.000
G1 X92.832 Y107.436 E1.16980 F378.000
G1 X92.616 Y107.488 E1.17704
G1 X93.405 Y107.130 F7800.000
G1 X93.439 Y107.164 E1.17863 F378.000
G1 F1800.000 E0.17863
G92 E0
G1 X99.423 Y106.671 F7800.000
G1 E1.00000 F1800.000
G1 X99.602 Y106.817 E1.00749 F378.000
G1 X99.660 Y106.449 E1.01962
G1 X99.771 Y106.429 E1.02330
G1 X99.919 Y106.895 E1.03920
G1 X100.389 Y106.702 E1.05572
G1 X100.565 Y106.910 E1.06459
G1 X100.405 Y107.130 E1.07343
G1 X100.367 Y106.712 E1.08709
G1 X100.367 Y107.127 F7800.000
G1 X100.069 Y107.125 E1.09679 F378.000
G1 X99.902 Y106.932 E1.10509
G1 X99.919 Y106.895 F7800.000
G1 X99.713 Y106.932 E1.11188 F378.000
G1 X99.702 Y106.946 F7800.000
G1 X99.579 Y107.488 E1.12997 F378.000
G1 X99.458 Y107.217 E1.13965
G1 X99.713 Y106.932 E1.15209
G1 X99.602 Y106.817 E1.15731
G1 X100.001 Y107.091 F7800.000
G1 X99.832 Y107.436 E1.16980 F378.000
G1 X99.616 Y107.488 E1.17704
G1 X100.405 Y107.130 F7800.000
G1 X100.439 Y107.164 E1.17863 F378.000
G1 F1800.000 E0.17863
G92 E0
G1 X106.423 Y106.671 F7800.000
G1 E1.00000 F1800.000
G1 X106.602 Y106.817 E1.00749 F378.000
G1 X106.660 Y106.449 E1.01962
G1 X106.771 Y106.429 E1.02330
G1 X106.919 Y106.895 E1.03920
G1 X107.389 Y106.702 E1.05572
G1 X107.565 Y106.910 E1.06459
G1 X107.405 Y107.130 E1.07343
G1 X107.367 Y106.712 E1.08709
G1 X107.367 Y107.127 F7800.000
G1 X107.069 Y107.125 E1.09679 F378.000
G1 X106.902 Y106.932 E1.10509
G1 X106.919 Y106.895 F7800.000
G1 X106.713 Y106.932 E1.11188 F378.000
G1 X106.702 Y106.946 F7800.000
G1 X106.579 Y107.488 E1.12997 F378.000
G1 X106.458 Y107.217 E1.13965
G1 X106.713 Y106.932 E1.15209
G1 X106.602 Y106.817 E1.15731
G1 X107.001 Y107.091 F7800.000
G1 X106.832 Y107.436 E1.16980 F378.000
G1 X106.616 Y107.488 E1.17704
G1 X107.405 Y107.130 F7800.000
G1 X107.439 Y107.164 E1.17863 F378.000
G1 F1800.000 E0.17863
G92 E0
G1 X106.423 Y99.671 F7800.000
G1 E1.00000 F1800.000
G1 X106.602 Y99.817 E1.00749 F378.000
G1 X106.660 Y99.449 E1.01962
G1 X106.771 Y99.429 E1.02330
G1 X106.919 Y99.895 E1.03920
G1 X107.389 Y99.702 E1.05572
G1 X107.565 Y99.910 E1.06459
G1 X107.405 Y100.130 E1.07343
G1 X107.367 Y99.712 E1.08709
G1 X107.367 Y100.127 F7800.000
G1 X107.069 Y100.125 E1.09679 F378.000
G1 X106.902 Y99.932 E1.10509
G1 X106.919 Y99.895 F7800.000
G1 X106.713 Y99.932 E1.11188 F378.000
G1 X106.702 Y99.946 F7800.000
G1 X106.579 Y100.488 E1.12997 F378.000
G1 X106.458 Y100.217 E1.13965
G1 X106.713 Y99.932 E1.15209
G1 X106.602 Y99.817 E1.15731
G1 X107.001 Y100.091 F7800.000
G1 X106.832 Y100.436 E1.16980 F378.000
G1 X106.616 Y100.488 E1.17704
G1 X107.405 Y100.130 F7800.000
G1 X107.439 Y100.164 E1.17863 F378.000
G1 F1800.000 E0.17863
G92 E0
M104 S0 ; turn off temperature
G28 X0  ; home X axis
M84     ; disable motors

; filament used = 3.3mm (0.0cm3)
