; generated by Slic3r 1.0.0RC2 on 2023-04-04 at 09:53:41

; layer_height = 0.4
; perimeters = 3
; top_solid_layers = 3
; bottom_solid_layers = 3
; fill_density = 0.4
; perimeter_speed = 30
; infill_speed = 60
; travel_speed = 130
; nozzle_diameter = 0.5
; filament_diameter = 3
; extrusion_multiplier = 1
; perimeters extrusion width = 0.50mm
; infill extrusion width = 0.53mm
; solid infill extrusion width = 0.53mm
; top infill extrusion width = 0.53mm
; first layer extrusion width = 0.70mm

G21 ; set units to millimeters
M107
M104 S200 ; set temperature
G28 ; home all axes
G1 Z5 F5000 ; lift nozzle

M109 S200 ; wait for temperature to be reached
G90 ; use absolute coordinates
G92 E0
M82 ; use absolute distances for extrusion
G1 F1800.000 E-1.00000
G92 E0
G1 Z0.350 F7800.000
G1 X94.753 Y94.797 F7800.000
G1 E1.00000 F1800.000
G1 X95.023 Y94.537 E1.01220 F600.000
G1 X96.023 Y93.747 E1.05366
G1 X97.163 Y93.157 E1.09542
G1 X98.383 Y92.797 E1.13681
G1 X99.653 Y92.677 E1.17831
G1 X100.923 Y92.807 E1.21985
G1 X102.143 Y93.167 E1.26123
G1 X103.153 Y93.577 E1.29670
G1 X104.323 Y94.187 E1.33962
G1 X105.333 Y95.017 E1.38216
G1 X106.173 Y96.027 E1.42490
G1 X106.793 Y97.187 E1.46769
G1 X107.183 Y98.437 E1.51029
G1 X107.313 Y99.747 E1.55312
G1 X107.313 Y100.257 E1.56972
G1 X107.183 Y101.567 E1.61255
G1 X106.793 Y102.817 E1.65515
G1 X106.173 Y103.977 E1.69794
G1 X105.333 Y104.987 E1.74068
G1 X104.323 Y105.817 E1.78322
G1 X103.153 Y106.427 E1.82615
G1 X102.143 Y106.837 E1.86161
G1 X100.923 Y107.197 E1.90300
G1 X99.653 Y107.327 E1.94453
G1 X98.383 Y107.207 E1.98604
G1 X97.153 Y106.837 E2.02782
G1 X96.023 Y106.247 E2.06930
G1 X95.023 Y105.457 E2.11076
G1 X94.733 Y105.177 E2.12388
G1 X93.863 Y104.157 E2.16750
G1 X93.223 Y102.987 E2.21088
G1 X92.833 Y101.717 E2.25411
G1 X92.693 Y100.387 E2.29762
G1 X92.693 Y99.627 E2.32235
G1 X92.823 Y98.327 E2.36485
G1 X93.203 Y97.087 E2.40705
G1 X93.833 Y95.907 E2.45057
G1 X94.263 Y95.327 E2.47406
G1 X94.686 Y94.869 E2.49434
G1 F1800.000 E1.49434
G92 E0
G1 X99.423 Y99.671 F7800.000
G1 E1.00000 F1800.000
G1 X99.602 Y99.817 E1.00749 F600.000
G1 X99.660 Y99.449 E1.01962
G1 X99.771 Y99.429 E1.02330
G1 X99.919 Y99.895 E1.03920
G1 X100.389 Y99.702 E1.05572
G1 X100.565 Y99.910 E1.06459
G1 X100.405 Y100.130 E1.07343
G1 X100.367 Y99.712 E1.08709
G1 X100.367 Y100.127 F7800.000
G1 X100.069 Y100.125 E1.09679 F600.000
G1 X99.902 Y99.932 E1.10509
G1 X99.919 Y99.895 F7800.000
G1 X99.713 Y99.932 E1.11188 F600.000
G1 X99.702 Y99.946 F7800.000
G1 X99.579 Y100.488 E1.12997 F600.000
G1 X99.458 Y100.217 E1.13965
G1 X99.713 Y99.932 E1.15209
G1 X99.602 Y99.817 E1.15731
G1 X100.001 Y100.091 F7800.000
G1 X99.832 Y100.436 E1.16980 F600.000
G1 X99.616 Y100.488 E1.17704
G1 X100.405 Y100.130 F7800.000
G1 X100.439 Y100.164 E1.17863 F600.000
G1 F1800.000 E0.17863
G92 E0
M104 S0 ; turn off temperature
G28 X0  ; home X axis
M84     ; disable motors

; filament used = 0.7mm (0.0cm3)
